X:1    
T:May Day Carol
F:http://www.folkinfo.org/songs
B:Songs of the West by S. Baring-Gould. 
S:
M:4/4     
L:1/8    
K:G
(GA)|(Bc) (BA) (AG) (FE)|A2 (BG) F5/2 A|
w:A-**wake, ye* pret-*ty*maids a*-wake, Re
(GE) (FG) A2 (d^c)|B5 e2|
w:fresh'd *from* drow-sy- *dream, And
(d^c) BA)G2 E2|(FG) (AF) d2 e2|d^c (BA) (GE) (FG)|E5 z2|]
w:haste **to *dairy *house,* and  take For us *a-**dish of *cream.
